dist/img/logo.svg

<svg width="50" height="38" viewBox="0 0 50 38" fill="none" xmlns="http://www.w3.org/2000/svg">
<path fill-rule="evenodd" clip-rule="evenodd" d="M0.639648 37.6529L48.7533 37.695C44.3389 34.7466 31.0481 33.2675 24.6951 33.2681C22.9136 33.2682 20.5359 33.39 17.9489 33.631C18.2243 31.7038 18.2475 12.3899 17.9743 10.9627C13.7134 11.7079 14.8067 16.3441 14.8053 20.6737C14.8038 25.0915 14.8747 29.5629 14.7943 33.9743C9.12509 34.6808 3.20568 35.9132 0.639648 37.6529ZM26.0819 16.6742H30.2851C30.1323 12.8978 29.8795 9.26791 33.8463 8.8277L33.8492 31.8682L30.351 31.5438C30.2469 27.6951 30.3153 23.7401 30.3304 19.8594H26.0815L26.0803 31.3156L21.771 31.3712C21.7684 25.5473 21.769 19.7231 21.7716 13.8992C21.7736 9.09842 20.3236 0.676542 26.0835 1.00959L26.0819 16.6742ZM9.30768 32.7653C12.8339 32.8459 12.0963 31.8491 12.094 28.611L12.0917 16.397C10.7589 16.2343 9.73342 17.1485 9.43312 18.2389C9.16814 19.1999 9.33003 31.1117 9.30768 32.7653ZM40.0866 32.7795L40.0742 16.3623C36.3878 16.2154 37.2983 21.3515 37.2983 24.4424C37.298 32.9336 36.5231 32.7682 40.0866 32.7795Z" fill="black" stroke="black" stroke-width="0.216"/>
</svg>

<svg fill="none" xmlns="http://www.w3.org/2000/svg" viewBox="0 0 50 38"><path fill-rule="evenodd" clip-rule="evenodd" d="M.64 37.653l48.113.042c-4.414-2.948-17.705-4.428-24.058-4.427-1.781 0-4.16.122-6.746.363.275-1.927.298-21.241.025-22.668-4.26.745-3.167 5.381-3.169 9.71-.001 4.419.07 8.89-.01 13.301-5.67.707-11.59 1.94-14.155 3.679zm25.442-20.979h4.203c-.153-3.776-.405-7.406 3.561-7.846l.003 23.04-3.498-.324c-.104-3.849-.036-7.804-.02-11.685h-4.25v11.457l-4.31.055c-.003-5.824-.002-11.648 0-17.472.003-4.8-1.447-13.222 4.313-12.89l-.002 15.665zM9.308 32.765c3.526.08 2.788-.916 2.786-4.154l-.002-12.214c-1.333-.163-2.359.752-2.659 1.842-.265.96-.103 12.873-.125 14.526zm30.779.014l-.013-16.417c-3.686-.147-2.776 4.99-2.776 8.08 0 8.492-.775 8.326 2.789 8.337z" fill="#000" stroke="#000" stroke-width=".216"/></svg>
